X:1
T:60 National Airs of Different Nations
T:Nº. 19. Podolian Air.
T:60 National Airs of Different Nations
T:Felix Horetzky (1796-1870)
T:Sheet music from www.MutopiaProject.org - Pubblico dominio
C:Felix Horetzky
C:(1796-1870)
Z:Sheet music from www.MutopiaProject.org - Pubblico dominio
%%score ( 1 2 3 )
L:1/8
Q:1/4=98
M:2/4
K:C
V:1 treble-8 nm="N°.19  \nAllegretto"
V:2 treble-8 
V:3 treble-8 
V:1
 E |!f! (A/^G/)A/B/ [Ac][Ac] | [AB]B A z | (c/B/)c/d/ e2 | [Bd][Bd] [ce] z | [cea]2 e/(=f/e/)d/ | %6
 cB Ac |!p! [AB]B e>d | c/>d/ B/>c/ A ::!f! A | G/>B/ e A/>c/ e | ^G/B/e/>G/ A z | %12
 G/>B/ f A/>c/ e | G/>B/ f [ce] z | [cea]2 e/(f/e/)d/ | [Ac][^GB] !fermata![FA]2 |!p! [AB]f e>d | %17
 [Ac][^GB] A :| %18
V:2
 z | A,2 A,F | D[E^G] A, z | [CE]2 C2 | GG, C z | A,2 [E,^GB]2 | [A,A][E^G] F2 | DB, [E^G]E, | %8
 [A,A][E,^G] A, :: z | E,2 A,2 | E,2 A, z | G,2 C2 | G,2 [CG] z | A,2 [E,^GB]2 | A,E, F,2 | %16
 D2 [E^G]E, | A,E, A, :| %18
V:3
 x | x4 | x4 | x2 G^F | x4 | x4 | x4 | x4 | x3 :: x | x4 | x4 | x4 | x4 | x4 | x4 | x4 | x3 :| %18

